Adwaita++/actions/22/document-page-setup.svg

<svg height="22" viewBox="0 0 22 22" width="22" xmlns="http://www.w3.org/2000/svg">
  <path d="m3 1.0039062s-1 0-1 1v2.75l2 1.15625v-2.90625h8v8.9765628l-12-6.9882815v7.0000005h12v1.011718h-10v1c0 1 1 1 1 1h10s1 0 1-1v-11.9999998c0-1-1-1-1-1zm-1 7.0429688 3.1152344 1.976563h-3.1152344z" fill="#444" transform="translate(3 3)"/>
</svg>

<svg xmlns="http://www.w3.org/2000/svg" width="22" height="22" viewBox="0 0 22 22">
 <defs>
  <style id="current-color-scheme" type="text/css">
   .ColorScheme-Text { color:#444444; } .ColorScheme-Highlight { color:#4285f4; }
  </style>
 </defs>
 <path style="fill:currentColor" class="ColorScheme-Text" d="M 3 1.0039062 C 3 1.0039062 2 1.0039062 2 2.0039062 L 2 4.7539062 L 4 5.9101562 L 4 3.0039062 L 12 3.0039062 L 12 11.980469 L 0 4.9921875 L 0 11.992188 L 12 11.992188 L 12 13.003906 L 2 13.003906 L 2 14.003906 C 2 15.003906 3 15.003906 3 15.003906 L 13 15.003906 C 13 15.003906 14 15.003906 14 14.003906 L 14 2.0039062 C 14 1.0039062 13 1.0039062 13 1.0039062 L 3 1.0039062 z M 2 8.046875 L 5.1152344 10.023438 L 2 10.023438 L 2 8.046875 z" transform="translate(3 3)"/>
</svg>
